X:118
T:Misty
C:Erroll Garner
N:TablEdited by John Baxter
L:1/8
Q:1/4=120
M:4/4
K:G
z4 z2 dB | F6 D3/2E/ | z/=Fe/ z/eg/ z/ed/ z/BG/ | z/E3/2 z4 B,3/2C/ | z/EG/ B/dd/ z/cd/ z2 | 
z/cB/ z2 z/Bc/ z/dG/ | z2 z/GA/ z/Bc/ z/E3/2 | z3/2F/ z3/2G/ z3/2A/ zz/B/ | z3d BA GF | 
D2 z2 z/[g3/2c3/2E3/2A,3/2] z/[^g3/2^c3/2=F3/2^A,3/2] | z2 [a6d6F6B,6] | z6 dB | 
F6 D3/2E/ | z/=Fe/ z/eg/ z/ed/ z/BG/ | z/E3/2 z4 B,3/2C/ | z/EG/ B/dd/ z/cd/ z2 | 
z/cB/ z2 z/Bc/ z/dG/ | z2 z/GA/ z/Bc/ z/E3/2 | z3/2F/ z3/2G/ z3/2A/ zz/G/ | z8 | 
z/G3/2 z/A3/2 z/B3/2 z/d3/2 | z/e3/2 =f2 fe f2 | =fg ^g2 =g2 f2 | e2 z/g=f/ z/e3/2 z2 | 
G2 A2 B2 d2 | e2 ff ef f2 | zf a2 fe d2 | z3d BA GF | D2 z2 z/[g3/2c3/2E3/2A,3/2] z/[^g3/2^c3/2=F3/2^A,3/2] | 
z2 [a6d6F6B,6] | z6 dB | F6 D3/2E/ | z/=Fe/ z/eg/ z/ed/ z/BG/ | z/E3/2 z4 B,3/2C/ | 
z/EG/ B/dd/ z/cd/ z2 | z/cB/ z2 z/Bc/ z/dG/ | z2 z/GA/ z/Bc/ z/E3/2 | z3/2F/ z3/2G/ z3/2A/ z2 | 
G8 | 


